icon/fa/mill-sign.svg

<svg xmlns="http://www.w3.org/2000/svg" viewBox="0 0 384 512"><!--! Font Awesome Free 6.1.2 by @fontawesome - https://fontawesome.com License - https://fontawesome.com/license/free (Icons: CC BY 4.0, Fonts: SIL OFL 1.1, Code: MIT License) Copyright 2022 Fonticons, Inc.--><path d="M282.9 96.53C339.7 102 384 149.8 384 208v208c0 17.7-14.3 32-32 32s-32-14.3-32-32V208c0-26.5-21.5-48-48-48-4.3 0-8.4.6-12.3 1.6L224 261.5V416c0 17.7-14.3 32-32 32-12.4 0-23.1-7.9-28.4-17.3l-21.5 60.1c-5.9 16.6-24.2 25.3-40.9 19.3-16.61-5.9-25.28-24.2-19.34-40.9L160 250.5V208c0-26.5-21.5-48-48-48-26.51 0-48 21.5-48 48v208c0 17.7-14.33 32-32 32S0 433.7 0 416V128c0-17.7 14.33-32 32-32 10.87 0 20.48 5.4 26.26 13.7C74.21 100.1 92.53 96 112 96c31.3 0 59.7 12.9 80 33.6 4.9-5 10.2-9.5 15.1-13.5l34.8-94.86c5.9-16.645 24.2-25.319 40.9-19.375 16.6 5.944 25.3 24.255 19.3 40.895l-19.2 53.77z"/></svg>

<svg xmlns="http://www.w3.org/2000/svg" viewBox="0 0 384 512" height="1em" width="1em">
<!--! Font Awesome Free 6.1.2 by @fontawesome - https://fontawesome.com License - https://fontawesome.com/license/free (Icons: CC BY 4.0, Fonts: SIL OFL 1.1, Code: MIT License) Copyright 2022 Fonticons, Inc.-->
  <path d="M282.9 96.53C339.7 102 384 149.8 384 208V416C384 433.7 369.7 448 352 448C334.3 448 320 433.7 320 416V208C320 181.5 298.5 160 272 160C267.7 160 263.6 160.6 259.7 161.6L224 261.5V416C224 433.7 209.7 448 192 448C179.6 448 168.9 440.1 163.6 430.7L142.1 490.8C136.2 507.4 117.9 516.1 101.2 510.1C84.59 504.2 75.92 485.9 81.86 469.2L160 250.5V208C160 181.5 138.5 160 112 160C85.49 160 64 181.5 64 208V416C64 433.7 49.67 448 32 448C14.33 448 0 433.7 0 416V128C0 110.3 14.33 96 32 96C42.87 96 52.48 101.4 58.26 109.7C74.21 100.1 92.53 96 112 96C143.3 96 171.7 108.9 192 129.6C196.9 124.6 202.2 120.1 207.1 116.1L241.9 21.24C247.8 4.595 266.1-4.079 282.8 1.865C299.4 7.809 308.1 26.12 302.1 42.76L282.9 96.53z"/>
</svg>
